X:1
T:Princess Mononoke
T:Princess Mononoke
T:From Piano Sings Japanese Animation Themes
T:Joe Hisaishi Arr. Tomohisa Okudo
T:Tomohisa Okudo
T:Tomohisa Okudo
T:Tomohisa Okudo
T:Tomohisa Okudo
T:Tomohisa Okudo
C:Joe Hisaishi; Tomohisa Okudo
Z:Tomohisa Okudo
%%score { ( 1 2 ) | ( 3 4 ) }
L:1/8
Q:1/4=80
M:4/4
K:Eb
V:1 treble nm="Piano" snm="Pno."
V:2 treble 
V:3 bass 
V:4 bass 
V:1
!p! (g2 f2 c2 d2- | d8) | (f2 e2 B2 c2- | c8) | [EA]8 | [FB]8 | !arpeggio![B,CDG]8 | %7
!pp! (=A/4B/4c/4d/4e/4f/4g/4=a/4 b/4c'/4d'/4!8va(!e'/4f'/4g'/4=a'/4b'/4 c''/4d''/4e''/4f''/4 g''6)!8va)! | %8
!p! (CGGF G3 G | BF- F6) | (CGGF G3 G | B6) (GB | cccc c3 c | B2 F2 G4) | (FFFG F2 C2 | %15
 [=A,CFG]4) =B,4 | (CGGF G3 B | F8) | (CGGF G G2 G | [DFB]6) (GB | [EAc]2 cc c3 c | %21
 [DB]2 F2 [B,G]4) | (FFFG F C2 E | [G,E]8) |!mp! (!arpeggio![CEGc]ccd c3 c | e2 d2 G4) | %26
 (F2 B2!<(! [B,G]2 FG!<)! |!mf! !arpeggio![DBd]dde d3) (B | [Ge]2 d2"_dim." G2 GB | %29
 c>B- BA!mp! [EB]4- |[M:2/4] [EB]2) (GB |[M:4/4] [EAc]2 e2 d G2 B |"_dim." c6) (GB | %33
!p! c2 e2 c G2 B | [FGc]4) FGcf | =e/c/G/=E/ C/G,/C,/G,,/ z4 | %36
 z2 (A,/4B,/4C/4D/4E/4F/4G/4A/4 B/4c/4d/4e/4f/4g/4a/4b/4 c'/4d'/4!8va(!e'/4f'/4g'/4a'/4b'/4c''/4d''/4e''/4f''/4g''/4)!8va)! | %37
 z2!8va(! (g''/4f''/4e''/4d''/4c''/4b'/4a'/4g'/4 f'/4e'/4!8va)!d'/4c'/4b/4a/4g/4f/4 e/4d/4c/4B/4A/4G/4F/4E/4D/4) | %38
 z2 (B,/4C/4D/4E/4F/4G/4A/4B/4 c/4d/4e/4f/4g/4a/4b/4c'/4 d'/4!8va(!e'/4f'/4g'/4a'/4b'/4c''/4d''/4e''/4f''/4g''/4)!8va)! | %39
 z2!8va(! (a''/4g''/4f''/4e''/4d''/4c''/4b'/4a'/4 g'/4f'/4e'/4!8va)!d'/4c'/4b/4a/4g/4 f/4e/4d/4c/4B/4A/4G/4F/4E/4D/4C/4B,/4_A,) | %40
!p! (cggf g3 g | bf- f6) | (cggf g3 g | b6) (gb | !arpeggio![eac']3 c' c'3 c' | [db]2 f2 [Bg]4) | %46
 (!arpeggio![Acf]3 g f2 c2 | !arpeggio![=Acfg]2) (D/F/c{=BA} B4) | (cggf g3 b | f8) | (cggf g3 g | %51
 !arpeggio![dfb]6) (gb | !arpeggio![eac']2 c'2 c'3 c' | [dfb]2 f2 [Bg]4) | %54
 (!arpeggio![Acf]3 g [Acf] c2 e | [GBe]8) |!mp! (!arpeggio![egc']3 d' c'3 c' | %57
 !arpeggio![ebe']2 !arpeggio![dd']2 !arpeggio![GBdg]4) | ([cf]2 b2!<(! !arpeggio![GBeg]2 fg!<)! | %59
!mf! !arpeggio![dgbd']3 [ee'] !arpeggio![dgd']3) ([Bb] | %60
 !arpeggio![ee']2 [dd']2 !arpeggio![GBdg]3 [Gg] | !arpeggio![cegc'] [Bb]2 [Aa] !arpeggio![Begb]4- | %62
[M:2/4] [Begb]2)!>(! (gb!>)! |[M:4/4]!mp! [eac']2 e'2 [dd'] g2 b |"_dim." !arpeggio![cc']6) (GB | %65
!p! [EAc]2 e2 !arpeggio![FGBd] G2 B | [FGc]4) FGcf | =e/c/G/=E/ C/G,/C,/G,,/ z2 (G,B, | %68
 !arpeggio![G,B,C]2 E2 !arpeggio![F,G,B,D] G,2 B, | !arpeggio![F,G,C]8)!8va(! z/4!8va)! | %70
!p! !arpeggio![G,C]8 |] %71
V:2
 !arpeggio![cdf]8 | x8 | !arpeggio![Bce]8 | x8 | x8 | x8 | x8 | x11/4!8va(! x33/4!8va)! | x8 | x8 | %10
 x8 | x8 | x8 | x8 | x8 | x8 | x8 | x8 | x8 | x8 | x8 | x8 | x8 | x8 | x8 | x8 | x8 | x8 | x8 | %29
 x8 |[M:2/4] x4 |[M:4/4] x8 | x8 | x8 | x8 | x8 | !arpeggio![B,DEG]8!8va(! z!8va)! | %37
 !arpeggio![B,EFGB]8 z/4 | !arpeggio![A,CEG]8!8va(! z/ z/4!8va)! | !arpeggio![=A,B,DFG]8 z2 | x8 | %41
 x8 | x8 | x8 | x8 | x8 | x8 | x8 | x8 | x8 | x8 | x8 | x8 | x8 | x8 | x8 | x8 | x8 | x8 | x8 | %60
 x8 | x8 |[M:2/4] x4 |[M:4/4] x8 | x8 | x8 | x8 | x8 | x8 | %69
 z2!pp! (=B,/4C/4D/4F/4G/4=A/4=B/4c/4 d/4f/4g/4=a/4=b/4c'/4d'/4!8va(!f'/4 g'/4=a'/4=b'/4c''/4d''/4f''/4g''/4=a''/4=c'''/4)!8va)! | %70
 (=E/4D/4E3/2- E6) |] %71
V:3
 !arpeggio![G,CDF]8- | [G,CDF]8 | !arpeggio![F,B,CF]8- | [F,B,CF]8 | [_F,A,B,]8 | [_G,B,C]8 | %6
 !arpeggio![=G,,B,,D,]8- | [G,,B,,D,]8- [G,,B,,D,]3 | (C,E, G,6) | (B,,D,F,B, C4) | A,,E,A,B, C4 | %11
 G,,D,G,B, D4 | (F,,C,F,A, C4) | (D,F, B,2) (E,G, B,2) | (_D,F,A,C- C4) | (=D,F,A,C) [G,,D,]4 | %16
 (C,,G,,C,D, E,2 G,2) | (B,,,F,,B,,C, D,2 F,2) | (A,,,E,,C,E, A,2 C2) | (G,,D,G,B, D4) | %20
 (F,,C,F,A, C4) | (D,,B,,F,B,,) (E,,B,, G,2) | (F,,C, A,2) (B,,F, A,2) | (E,,B,,E,F, G,4) | %24
 (C,,G,,C,E, G,2 C2) | (G,,D,G,B, D4) | (F,,C,A,C,) (E,,B,,G,B,,) | (G,,D,B,D,) (G,,D,B,D,) | %28
 (C,,G,,E,G,,) (B,,,G,,D,G,,) | (A,,E,CE,) (G,,E,G,B, |[M:2/4] E4) | %31
[M:4/4] (F,,C,A,C,) (G,,D,B,D,) | (A,,E,A,B, C4) | (F,A,CE) (G,B, D2) | C,F,G,C z4 | [C,G,]4 C,,4 | %36
 [C,E,]8 z | [C,G,]8 z/4 |{/A,,} [F,,A,,]8 z/ z/4 | !arpeggio![G,,D,F,]8 z2 | (C,G,CD E2 G2) | %41
 (B,,F,B,C D2 F2) | (A,,E,A,B, C2 E2) | (G,,D,G,B, D4) | (F,,C,F,A, C2 E2) | (D,B, F2) (E,B, G2) | %46
 (_D,A,_DF- F4) | (=D,F, =A,2) (G,,D, G,2) | (C,G,CD E2 G2) | (B,,F,B,C D2 F2) | %50
 (A,,E,A,B, C2 E2) | (G,,D,G,B, D4) | (F,A,CF A2 F,2) | (D,B,FB,) (E,B, G2) | %54
 (F,A,CE) (B,,F, A,2) | (E,,B,,E,G, [E,B,]4) | (C,G,CD E2 G2) | (G,,D,G,B, D2 G,2) | %58
 (F,,C,A,C,) (E,,B,,G,B,,) | (G,,D,B,D,) (G,,D,B,D,) | (C,G,EG,) (B,,G,DG,) | %61
 (A,,E,CE,) (G,,E,G,B, |[M:2/4] E4) |[M:4/4] (F,A,CE) (G,B, D2) | (A,,E,A,B, C4) | %65
 (F,,C,A,C,) (G,,D, B,2) | C,F,G,C z4 | [C,G,]4 C,,4 | !arpeggio![A,,,E,,]4 !arpeggio![B,,,F,,]4 | %69
 [C,,C,]8 z/4 | !fermata![C,,C,]8 |] %71
V:4
 x8 | x8 | x8 | x8 | z4 _F,,4 | z4 _G,,4 | x8 | x11 | x8 | x8 | x8 | x8 | x8 | x8 | x8 | x8 | x8 | %17
 x8 | x8 | x8 | x8 | x8 | x8 | x8 | x8 | x8 | x8 | x8 | x8 | x8 |[M:2/4] x4 |[M:4/4] x8 | x8 | x8 | %34
 x8 | x8 | x9 | x33/4 | x35/4 | x10 | x8 | x8 | x8 | x8 | x8 | x8 | x8 | x8 | x8 | x8 | x8 | x8 | %52
 x8 | x8 | x8 | x8 | x8 | x8 | x8 | x8 | x8 | x8 |[M:2/4] x4 |[M:4/4] x8 | x8 | x8 | x8 | x8 | x8 | %69
 x33/4 | x8 |] %71

